synths/sEUR.svg

<svg width="42" height="42" viewBox="0 0 42 42" fill="none" xmlns="http://www.w3.org/2000/svg">
<g clip-path="url(#clip0_7277_57820)">
<mask id="mask0_7277_57820" style="mask-type:alpha" maskUnits="userSpaceOnUse" x="0" y="0" width="42" height="42">
<circle cx="21" cy="21" r="21" fill="url(#paint0_linear_7277_57820)"/>
</mask>
<g mask="url(#mask0_7277_57820)">
<circle cx="21" cy="21" r="21" fill="#34EDB3"/>
<circle cx="21" cy="21" r="18.2" fill="white"/>
</g>
<circle cx="21" cy="21" r="16.1" fill="#06061B"/>
<circle cx="21" cy="21" r="16.1" fill="#06061B"/>
<path d="M23.1001 28.595C22.2601 28.595 21.4831 28.476 20.7691 28.238C20.0551 27.986 19.4181 27.629 18.8581 27.167C18.3121 26.705 17.8501 26.152 17.4721 25.508C17.1081 24.85 16.8491 24.122 16.6951 23.324H14.7001V21.791H16.5271C16.5131 21.693 16.5061 21.588 16.5061 21.476C16.5061 21.364 16.5061 21.245 16.5061 21.119C16.5061 20.965 16.5061 20.818 16.5061 20.678C16.5201 20.524 16.5271 20.398 16.5271 20.3H14.7001V18.767H16.6741C16.8281 17.941 17.0941 17.199 17.4721 16.541C17.8641 15.883 18.3401 15.33 18.9001 14.882C19.4741 14.42 20.1251 14.07 20.8531 13.832C21.5811 13.594 22.3651 13.475 23.2051 13.475C24.1711 13.475 24.9761 13.601 25.6201 13.853C26.2641 14.105 26.8101 14.42 27.2581 14.798L26.2081 16.814C25.7321 16.45 25.2561 16.198 24.7801 16.058C24.3181 15.918 23.8001 15.848 23.2261 15.848C22.2041 15.848 21.3501 16.1 20.6641 16.604C19.9781 17.108 19.5371 17.829 19.3411 18.767H25.4521L24.7171 20.3H19.1731C19.1731 20.426 19.1661 20.552 19.1521 20.678C19.1521 20.804 19.1521 20.923 19.1521 21.035C19.1521 21.161 19.1521 21.287 19.1521 21.413C19.1661 21.539 19.1731 21.665 19.1731 21.791H24.2971L23.5621 23.324H19.3411C19.5371 24.248 19.9711 24.962 20.6431 25.466C21.3291 25.97 22.1761 26.222 23.1841 26.222C23.8141 26.222 24.3601 26.145 24.8221 25.991C25.2981 25.823 25.7041 25.613 26.0401 25.361L27.2581 27.272C26.7541 27.706 26.1591 28.035 25.4731 28.259C24.8011 28.483 24.0101 28.595 23.1001 28.595Z" fill="white"/>
</g>
<defs>
<linearGradient id="paint0_linear_7277_57820" x1="21" y1="0" x2="21" y2="61.4091" gradientUnits="userSpaceOnUse">
<stop stop-color="#08021E"/>
<stop offset="1" stop-color="#1F0777"/>
</linearGradient>
<clipPath id="clip0_7277_57820">
<rect width="42" height="42" fill="white"/>
</clipPath>
</defs>
</svg>

<svg xmlns="http://www.w3.org/2000/svg" width="42" height="42" fill="none"><g clip-path="url(#a)"><mask id="c" width="42" height="42" x="0" y="0" maskUnits="userSpaceOnUse" style="mask-type:alpha"><circle cx="21" cy="21" r="21" fill="url(#b)"/></mask><g mask="url(#c)"><circle cx="21" cy="21" r="21" fill="#34EDB3"/><circle cx="21" cy="21" r="18.2" fill="#fff"/></g><circle cx="21" cy="21" r="16.1" fill="#06061B"/><circle cx="21" cy="21" r="16.1" fill="#06061B"/><path fill="#fff" d="M23.1 28.595a7.33 7.33 0 0 1-2.33-.357 6.236 6.236 0 0 1-1.912-1.071 6.388 6.388 0 0 1-1.386-1.659 7.36 7.36 0 0 1-.777-2.184H14.7v-1.533h1.827a2.23 2.23 0 0 1-.02-.315v-.798a4.34 4.34 0 0 0 .02-.378H14.7v-1.533h1.974c.154-.826.42-1.568.798-2.226a6.09 6.09 0 0 1 1.428-1.659 6.115 6.115 0 0 1 1.953-1.05 7.526 7.526 0 0 1 2.352-.357c.966 0 1.771.126 2.415.378.644.252 1.19.567 1.638.945l-1.05 2.016c-.476-.364-.952-.616-1.428-.756a5.35 5.35 0 0 0-1.554-.21c-1.022 0-1.876.252-2.562.756-.686.504-1.127 1.225-1.323 2.163h6.111l-.735 1.533h-5.544c0 .126-.007.252-.02.378v.735c.013.126.02.252.02.378h5.124l-.735 1.533h-4.22c.195.924.63 1.638 1.301 2.142.686.504 1.533.756 2.541.756.63 0 1.176-.077 1.638-.231a4.528 4.528 0 0 0 1.218-.63l1.218 1.911a5.15 5.15 0 0 1-1.785.987c-.672.224-1.463.336-2.373.336Z"/></g><defs><linearGradient id="b" x1="21" x2="21" y1="0" y2="61.409" gradientUnits="userSpaceOnUse"><stop stop-color="#08021E"/><stop offset="1" stop-color="#1F0777"/></linearGradient><clipPath id="a"><path fill="#fff" d="M0 0h42v42H0z"/></clipPath></defs></svg>
